X: 127
T: Mache fu zhige
%%abc-version 2.0
%%abcx-abcm2ps-target-version 5.9.1 (29 Sep 2008)
%%abc-creator hum2abc beta
%%abcx-conversion-date 2013/10/02 07:44:27
%%abc-edited-by Helmut Schaffrath
%%humdrum-veritas 1246789258
%%humdrum-veritas-data 2381132635
%%continueall 1
%%barnumbers 0
L: 1/16
M: 4/4
K: Ab
F F F A A2 A2 B c B A A2 F2 [I:setbarnb 1]| 
F A A A A B c AB4z4 | 
c c c B c2 c2 c e c B A2 F2 | 
F A B c A B G2F4z4 | 
f g f e f2 f2 e e =d e e2 e2 | 
e e =d e f2 e _dc4z4 | 
d c e f e d c2 c> d c B A2 G A | 
B2 c A B2 A GF4z4 |]  



